!!!!SEGMENT: 010_1-6-1b-KI-002.krn
!!!COM: Chopin, Fryderyk
!!!OTL: Etude No. 2
!!!OPS: Op. 10
!!!PTL: Douze GRANDES ETUDES pour le Pianoforte
!!!PPR: Kistner
!!!PPP: Leipzig
!!!AGN: Nocturne
!!!NIFC-rismID: 300605312
!!!NIFC-shelfmark: PL-Wbfc 2438/n
!!!OMD: ([quarter] = 144.)
!!!OMD: ALLEGRO.
**kern	**kern	**fing	**dynam
*part1	*part1	*	*part1
*staff2	*staff1	*	*
*	*I" N.º 2.	*	*
*clefF4	*clefG2	*	*
*k[]	*k[]	*	*
*a:	*a:	*	*
*M4/4	*M4/4	*	*
*met(c)	*met(c)	*	*
*MM144	*MM144	*	*
=1	=1	=1	=1
*	*^	*	*
*	*	*	*^	*
!	!	!	!	!	!LO:DY:rj
8AA'<	16aLL	16e 16c	4	2 1	p
!	!LO:TX:a:B:i:t=sempre legato	!	!	!	!
.	16a#X	8.rAyy	3	.	.
8r	16b	.	4	.	.
.	16ccJJ	.	5	.	.
8cn'> 8A'> 8E'>	16cc#XLL	16an 16e	3	2 1	.
.	16dd	8.rcyy	4	.	.
8r	16dd#X	.	3	.	.
.	16eeJJ	.	4	.	.
8AA'<	16ffLL	16ddn 16a	5	2 1	.
.	16ff#X	8.reyy	3	.	<
8r	16gg	.	4	.	.
.	16gg#XJJ	.	3	.	.
8d'> 8A'> 8F'>	16aaLL	16ffn 16dd	4	.	.
.	16aa#X	8.reyy	3	.	.
8r	16bb	.	4	.	.
.	16cccnJJ	.	5	.	.
*	*	*	*v	*v	*
=2	=2	=2	=2	=2
8AA'< 8AAA'<	16ccc#XLL	16aa 16ee	3	.
.	16ddd	8.rddyy	4	.
8r	16ddd#X	.	3	.
.	16eeeJJ	.	4	.
8cn'> 8A'> 8E'>	16fffLL	16cccn 16aa	5	.
.	16eee	8.rddyy	4	.
8r	16ddd#X	.	3	.
.	16dddnJJ	.	4	.
8e'> 8cny'> 8A'>	16ccc#XLL	16aa 16ee	3	.
.	16cccn	8.ryy	5	.
8r	16bb	.	4	.
.	16bb-XJJ	.	3	.
4r	16aaLL	16ee 16ccn	4	.
.	16gg#X	8.ryy	3	.
.	16bbn	.	5	.
.	16aaJJ	.	4	.
!!LO:LB:g=original
=3	=3	=3	=3	=3
8EE'<	16gg#XLL	16ee 16b	3	.
.	16ggn	8.reyy	5	.
8r	16ff#X	.	3	.
.	16ffnJJ	.	5	.
8d'> 8B'> 8E'>	16eeLL	16b 16g#X	4	.
.	16dd#X	8.rcyy	3	.
8r	16ff	.	5	.
.	16eeJJ	.	4	.
8AA'<	16dd#XLL	16cc 16a	3	.
.	16ddn	8.rcyy	4	.
8r	16cc#X	.	3	.
.	16ccnJJ	.	4	.
8c'> 8A'> 8E'>	16bLL	16a 16e	3	.
.	16cc	8.rcyy	4	.
8r	16dd	.	5	.
.	16ccJJ	.	4	.
=4	=4	=4	=4	=4
8B'> 8E'>	16bLL	16g#X 16e	3 5	.
.	16cc	8.rcyy	4 4	.
8r	16b	.	3 5	.
.	16ccJJ	.	4	.
[4B^> (<4F^>	16bLL	16a 16d#X	3	.
.	16cc	8.rcyy	4	.
.	16b	.	3	.
.	16ccJJ	.	4	.
8B] 8E)	16bLL	16g# 16e	3	.
.	16ee	8.rcyy	5	.
8r	16dd#X	.	4	.
.	16ddnJJ	.	5	.
4r	16cc#XLL	16g# 16dn	4	.
.	.	.	.	<
.	16ccn	8.rcyy	5	.
.	16b	.	4	.
.	16b-XJJ	.	3	.
.	.	.	.	[
!!LO:LB:g=original
=5	=5	=5	=5	=5
!	!LO:TX:a:B:i:t= sempre legato.	!	!	!
8AA'<	16aLL	16e 16c	.	.
.	16a#X	8.rAyy	.	.
8r	16b	.	.	.
.	16ccJJ	.	.	.
8cn'> 8A'> 8E'>	16cc#XLL	16an 16e	.	.
.	16dd	8.rAyy	.	.
8r	16dd#X	.	.	.
.	16eeJJ	.	.	.
8AA'<	16ffLL	16ddn 16a	.	.
.	16ff#X	8.rcyy	.	<
8r	16gg	.	.	.
.	16gg#XJJ	.	.	.
8d'> 8A'> 8F'>	16aaLL	16ffn 16dd	.	.
.	16aa#X	8.reyy	.	.
8r	16bb	.	.	.
.	16cccnJJ	.	.	.
=6	=6	=6	=6	=6
8AA 8AAA'	16ccc#XLL	16aa 16ee	.	.
.	16ddd	8.reyy	.	.
8r	16ddd#X	.	.	.
.	16eeeJJ	.	.	.
8cn'> 8A'> 8E'>	16fffLL	16cccn 16aa	.	.
.	16eee	8.ryy	.	.
8r	16ddd#	.	.	.
.	16dddnJJ	.	.	.
8e'> 8c'> 8A'>	16ccc#XLL	16aa 16ee	.	.
.	16cccn	8.reyy	.	.
8r	16bb	.	.	.
.	16bb-XJJ	.	.	.
4r	16aaLL	16ee 16ccn	.	.
.	16gg#X	8.rgyy	.	.
.	16bbn	.	5	.
.	16aaJJ	.	4	.
!!LO:LB:g=original
=7	=7	=7	=7	=7
8BB'<	16ggnLL	16ee 16b	5	.
.	16gg#X	8.reyy	3	.
8r	16aa	.	4	.
.	16aa#XJJ	.	3	.
8g#'> 8e'> 8B'>	16bbLL	16ggny 16ee	4	.
.	16ccc	8.ryy	5	.
8r	16bb	.	4	.
.	16aa#JJ	.	3	.
8BB'<	16aanLL	16ff#X 16dd#X	5	.
.	16gg#y	8.reyy	4	.
8r	16ggn	.	5	.
.	16ff#XJJ	.	4	.
8b'> 8f#X'> 8B'>	16ee#XLL	16dd# 16a	5	.
.	16ff#	8.rgyy	4	.
8r	16gg	.	5	.
.	16ff#JJ	.	4	.
=8	=8	=8	=8	=8
4e 4E	16eenLL	16b 16g#X	3	.
.	.	.	.	>
.	16ffn	8.rcyy	5	.
.	16dd#X	.	3	.
.	16eeJJ	.	5	.
!	!	!	!	!LO:DY:b=2
.	.	.	.	]fz
4E 4EE	16ddnLL	16a 16f	4	.
.	16ee	8.reyy	5	>
.	16cc#X	.	3	.
.	16ddJJ	.	5	.
4r	16ccnLL	16a 16e	4	.
.	16dd	8.rcyy	5	.
.	16b	.	3	.
.	16ccJJ	.	5	.
4E 4EE	16bLL	16g# 16d	4	.
.	16cc	8.rcyy	5	.
.	16a#X	.	3	.
.	16bJJ	.	5	.
!!LO:LB:g=original
=9	=9	=9	=9	=9
8AA'<	16anLL	16e 16c	4	.
.	16a#X	8.rAyy	.	.
8r	16b	.	.	.
.	16ccJJ	.	.	.
8cn'> 8A'> 8E'>	16cc#XLL	16an 16e	.	.
.	16dd	8.rcyy	.	.
8r	16dd#X	.	.	.
.	16eeJJ	.	.	.
8AA'<	16ffLL	16ddn 16a	.	.
.	16ff#X	8.rgyy	.	<
8r	16gg	.	.	.
.	16gg#XJJ	.	.	.
8d'> 8A'> 8F'>	16aaLL	16ffn 16dd	.	.
.	16aa#X	8.ryy	.	.
8r	16bb	.	.	.
.	16cccnJJ	.	.	.
=10	=10	=10	=10	=10
8AA'< 8AAA'<	16ccc#XLL	16aa 16ee	.	.
.	16ddd	8.ryy	.	.
8r	16ddd#X	.	.	.
.	16eeeJJ	.	.	.
8cn'> 8A'> 8E'>	16fffLL	16cccn 16aa	.	.
.	16eee	8.rffyy	.	.
8r	16ddd#	.	.	.
.	16dddnJJ	.	.	.
8e'> 8c'> 8A'>	16ccc#XLL	16aa 16ee	.	.
.	16cccn	8.ryy	.	.
8r	16bb	.	.	.
.	16bb-XJJ	.	.	.
4r	16aaLL	16ee 16ccn	.	.
.	16gg#X	8.ryy	.	.
.	16bbn	.	.	.
.	16aaJJ	.	.	.
!!LO:LB:g=original
=11	=11	=11	=11	=11
!	!LO:TX:a:B:i:t= sempre legato.	!	!	!
8EE'<	16gg#XLL	16ee 16b	.	.
.	16ggn	8.rgyy	.	.
8r	16ff#X	.	.	.
.	16ffnJJ	.	.	.
8d'> 8B'> 8E'>	16eeLL	16b 16g#X	.	.
.	16dd#X	8.rgyy	.	.
8r	16ff	.	.	.
.	16eeJJ	.	.	.
8AA'<	16dd#XLL	16cc 16a	.	.
.	16ddn	8.reyy	.	.
8r	16cc#X	.	.	.
.	16ccnJJ	.	.	.
8c'> 8A'> 8E'>	16bLL	16a 16e	.	.
.	16cc	8.reyy	.	.
8r	16dd	.	.	.
.	16ccJJ	.	.	.
=12	=12	=12	=12	=12
8B 8E'	16bLL	16g#X 16e	.	.
.	16cc	8.reyy	.	.
8r	16b	.	.	.
.	16ccJJ	.	.	.
!	!	!	!	!LO:DY:b=2
.	.	.	.	f
[4B (<4F	16bLL	16a 16d#X	.	.
.	16cc	8.reyy	.	>
.	16b	.	.	.
.	16ccJJ	.	.	.
.	.	.	.	]
8B] 8E)	16bLL	16g# 16e	.	.
.	16ee	8.reyy	.	.
8r	16dd#X	.	.	.
.	16ddnJJ	.	.	.
4r	16cc#XLL	16g# 16dn	.	.
.	16ccn	8.rcyy	.	.
.	16b	.	.	.
.	16b-XJJ	.	.	.
!!LO:PB:g=original
=13	=13	=13	=13	=13
8AA'<	16aLL	16e 16c	.	.
.	16a#X	8.rAyy	.	.
8r	16bn	.	.	.
.	16ccJJ	.	.	.
8cn'> 8A'> 8E'>	16cc#XLL	16an 16e	.	.
.	16dd	8.rcyy	.	.
8r	16dd#X	.	.	.
.	16eeJJ	.	.	.
8AA'<	16ffLL	16ddny 16a	.	.
.	16ff#X	8.ryy	.	.
8r	16gg	.	.	.
.	16gg#XJJ	.	.	.
8d'> 8A'> 8F'>	16aaLL	16ffn 16dd	.	.
.	16aa#X	8.ryy	.	.
8r	16bb	.	.	.
.	16cccnJJ	.	.	.
=14	=14	=14	=14	=14
8AA 8AAA	16ccc#XLL	16aa 16ee	.	.
.	16ddd	8.ryy	.	.
8r	16ddd#X	.	.	.
.	16eeeJJ	.	.	.
8cn 8A 8E'	16fffLL	16cccn 16aa	.	.
.	16eee	8.ryy	.	.
8r	16ddd#	.	.	.
.	16dddnJJ	.	.	.
8e 8cn 8A'	16ccc#XLL	16aa 16ee	.	.
.	16cccn	8.ryy	.	.
8r	16bb	.	.	.
.	16bb-XJJ	.	.	.
4r	16aaLL	16ee 16ccn	.	.
.	16gg#X	8.rgyy	.	.
.	16bbn	.	.	.
.	16aaJJ	.	.	.
!!LO:LB:g=original
=15	=15	=15	=15	=15
!	!	!LO:N:n=1:vis=16.	!	!
8D'< 8DD'<	16bb-XLL	16ff 16dd	3	.
.	16bbn	8.ryy	4	.
8r	16ccc	.	5	.
.	16ccc#XJJ	.	3	.
*	*8va	*	*	*
8d'> 8B-X'> 8F'> 8D'>	16dddLL	16bb-X 16ff	4	.
.	16ddd#X	8.reyy	3	.
8r	16eee	.	4	.
.	16fffJJ	.	5	.
8E'< 8EE'<	16eeeLL	16dddn 16gg#X	4	.
.	16fff	8.rgyy	5	<
8r	16fff#X	.	3	.
.	16gggJJ	.	4	.
8d'> 8Bn'> 8E'>	16ggg#XLL	16ddd	3	.
.	16aaa	8.rgyy	4	.
8r	16aaa#X	.	3	.
.	16bbbJJ	.	4	.
=16	=16	=16	=16	=16
!	!LO:TX:t=P:zle wyświetlają się wysokości:problem	!	!	!
8F'< 8FF'<	16aaaLL	16fff 16ccc	5	.
.	16ggg#X	8.reyy	4	.
8r	16gggn	.	5	.
.	16fff#XJJ	.	4	.
8f'> 8c'> 8A'>	16fffnLL	16ccc 16aa	5	.
.	16eee	8.reyy	4	.
8r	16eee-X	.	3	.
.	16dddJJ	.	5	.
8Cn'< 8CCn'<	16ccc#XLL	16aa 16ee	4	.
.	16cccn	8.rcyy	5	.
8r	16bb	.	4	.
.	16bb-XJJ	.	3	.
*	*X8va	*	*	*
!	!LO:TX:a:B:i:t= loco.	!	!	!
8e'> 8A'> 8E'>	16aaLL	16ee-y 16ccn	5	.
.	16gg#X	8.rcyy	4	.
8r	16ggn	.	5	.
.	16ff#XJJ	.	4	.
!!LO:LB:g=original
=17	=17	=17	=17	=17
8DD	16ffnLL	16dd 16b-X	5	.
.	16ee	8.reyy	4	.
8r	16ee-X	.	3	.
.	16ddJJ	.	4	.
(>4d 4B-X 4F 4D	16cc#XLL	16b- 16f	3	.
.	16dd	8.reyy	4	>
.	16ff	.	5	.
.	16ddJJ	.	4	]]
4c 4A 4E)	16bnLL	16a 16en	3	.
.	16ccn	8.rcyy	4	>
.	16ee-	.	5	.
.	16ccJJ	.	4	.
(4E^>	16a#XLL	16g#X 16d	3	.
.	16b	8.reyy	4	.
.	16ee-	.	5	.
.	16bJJ	.	4	.
=18	=18	=18	=18	=18
4A 4AA)	16anLL	16e 16c	5	<
.	16a#X	8.rcyy	3	.
.	16b	.	4	.
.	16ccJJ	.	5	.
(>4E 4EE	16cc#XLL	16g#X 16e	3	.
.	16dd	8.reyy	4	.
.	16dd#X	.	3	.
.	16eeJJ	.	4	[
4AA 4AAA)	(<16aanLL	16ccn 16any	5	.
.	.	.	.	>
.	16gg#X	8.reyy	4	.
.	16ggn	.	5	.
.	16ff#XJJ	.	4	.
4r	16ffnLL>	4reyy	5	.
.	16ee	.	4	.
.	16ee-X	.	3	.
.	16ddnJJ)	.	5	.
.	.	.	.	]
!!LO:LB:g=original
=19	=19	=19	=19	=19
!	!LO:TX:a:B:i:t= sempre legato.	!	!	!
8C'< 8CC'<	16dd-XLL	16b-X 16e	4	.
.	16cc	8.rcyy	5	p
8r	16bn	.	3	.
.	16ccJJ	.	4	.
8c'> 8G'> 8C'>	16cc#XLL	16b-X 16e	3	.
.	16ddn	8.rcyy	4	.
8r	16dd#X	.	3	.
.	16eeJJ	.	4	.
8FF'<	16ffLL	16a	5	.
.	16ff#X	8.reyy	3	.
8r	16gg	.	4	.
.	16gg#XJJ	.	3	.
8c'> 8A'> 8C'>	16aaLL	16ccn	5	.
!	!LO:TX:b:B:i:t=poco-a-poco-cres.:dur=7e:ext=ud:problem:text with extention lines	!	!	!
.	16ee	8.rgyy	3	.
8r	16ffn	.	5	.
.	16ddnyJJ	.	4	.
=20	=20	=20	=20	=20
8CC'<	16dd-XLL	16b-X	3	.
.	16cc	8.reyy	4	.
8r	16bn	.	3	.
.	16ccJJ	.	4	.
8c'> 8G'> 8C'>	16cc#XLL	16b-X 16e	3	.
.	16ddn	8.reyy	4	.
8r	16dd#X	.	3	.
.	16eeJJ	.	4	.
8DD-X'<	16ffLL	16a-X 16f	5	.
.	16ff#X	8.rgyy	4	.
8r	16gg	.	5	.
.	16aa-XJJ	.	4	.
8Bn'> 8A-X'> 8D-'>	16ggLL	16bn	5	.
.	16ff#X	8.rgyy	4	.
8r	16ffn	.	5	.
.	16eeJJ	.	4	.
!!LO:LB:g=original
=21	=21	=21	=21	=21
*	*	*	*^	*
!	!LO:TX:a:iB:t=sempre legato.	!	!	!	!
8DDn'<	16ee-XLL	16cc	3	2	.
.	16dd	8.reyy	4	.	.
8r	16cc#X	.	3	.	.
.	16ddJJ	.	4	.	.
8c'> 8A'> 8D'>	16ee-LL	16ccn 16f#X	3	.	.
.	16een	8.rgyy	4	.	.
8r	16ff	.	5	.	.
.	16ff#XJJ	.	4	.	.
8GG'<	16ggLL	16b-X	5	.	.
!	!LO:TX:b:B:i:t=poco-a-poco.:dur=9e:ext=ud:problem:text with extention lines	!	!	!	!
.	16gg#X	8.reyy	4	.	.
8r	16aa	.	5	.	.
.	16bb-XJJ	.	4	.	.
8B-X'> 8G'> 8D'>	16aaLL	16dd	5	.	.
.	16ff#	8.rgyy	3	.	.
8r	16ggny	.	5	.	.
.	16ee-XJJ	.	4	.	.
*	*	*	*v	*v	*
=22	=22	=22	=22	=22
8DD'<	16ddLL	16cc	3	.
.	16ee-X	8.rcyy	4	.
8r	16cc#X	.	2	.
.	16ddJJ	.	4	.
8c'> 8A'> 8D'>	16ee-LL	16ccn 16f#X	3	.
.	16een	8.reyy	4	.
8r	16ff	.	5	.
.	16ff#XJJ	.	4	.
8EE-X'<	16ggLL	16b-X 16g	5	.
.	16gg#X	8.reyy	4	.
8r	16aa	.	5	.
.	16bb-XJJ	.	4	.
8c#X'> 8B-X'> 8E-X'>	16aaLL	16cc#X	5	.
.	16gg#	8.rgyy	4	.
8r	16ggn	.	5	.
.	16ff#XJJ	.	4	.
!!LO:LB:g=original
=23	=23	=23	=23	=23
*	*	*	*^	*
8EEn'<	16ffnLL	16dd	5	2	.
.	16ee	8.reyy	4	.	<
8r	16dd#X	.	3	.	.
.	16eeJJ	.	4	.	.
8d'> 8Bn'> 8E'>	16ffLL	16ddn 16g#X	5	.	.
.	16ff#X	8.ryy	3	.	.
8r	16ggn	.	4	.	.
.	16gg#XJJ	.	3	.	.
8AA'<	16aaLL	16cc	4	.	.
.	16aa#X	8.rgyy	3	.	.
8r	16bb	.	4	.	.
.	16cccJJ	.	5	.	.
8e'> 8c'> 8A'> 8E'>	16bbLL	16ee	4	.	.
.	16bb-X	8.ryy	3	.	.
8r	16aan	.	4	.	.
.	16gg#XJJ	.	3	.	.
*	*	*	*v	*v	*
=24	=24	=24	=24	=24
8EE'<	16ggnLL	16dd	4	.
.	16ff#X	8.rgyy	3	.
8r	16ffn	.	4	.
.	16eeJJ	.	3	.
8d'> 8B'> 8E'>	16ffLL	16dd 16g#X	4	<
.	16ff#X	8.ryy	3	.
8r	16gg	.	4	.
.	16gg#XJJ	.	3	.
(4A 4AA	16aaLL	16cc	4	.
.	16aa#X	8.ryy	3	.
.	16bb	.	4	.
.	16cccJJ	.	5	.
4G\ 4GG\)	16ccc#XLL	16aany 16ee	3	.
.	16ddd	8.ryy	4	.
.	16ddd#X	.	3	.
.	16eeeJJ	.	4	.
.	.	.	.	[
!!LO:PB:g=original
=25	=25	=25	=25	=25
4F 4FF	16fffnLL	16aa	5	f
.	16eee	8.ryy	4	.
.	16eee-X	.	3	.
.	16dddJJ	.	5	.
2B^> 2BB^>	16ccc#XLL	16aa 16ff	4	.
.	16cccn	8.ryy	5	.
.	16bb	.	4	.
.	16bb-XJJ	.	3	.
.	16aaLL	16ff 16dd	5	.
.	16gg#X	8.ryy	4	.
.	16ggn	.	5	.
.	16ff#XJJ	.	4	.
4e 4E	16ffnLL	16dd 16g#X	5	.
.	.	.	.	>
.	16ee	8.rgyy	4	.
.	16dd#X	.	3	.
.	16eeJJ	.	1	.
.	.	.	.	]
=26	=26	=26	=26	=26
*	*	*	*^	*
4E-X 4EE-X	16eee-XLL	16ggn	5	2	.
*	*	*	*v	*v	*
.	16ddd	8.ryy	5	.
.	16ccc#X	.	4	.
.	16cccnJJ	.	5	.
2A^> 2AA^>	16bbLL	16gg 16ee-X	4	.
.	16bb-X	8.ryy	3	.
.	16aa	.	5	.
.	16gg#XJJ	.	4	.
.	16ggnLL	16ee- 16cc	5	.
.	16ff#X	8.ryy	4	.
.	16ffn	.	5	.
.	16ee-JJ	.	4	.
4d 4D	16ee-XLL	16cc 16f#X	3	.
.	16dd	8.reyy	4	.
.	16cc#X	.	3	.
.	16ddJJ	.	1	.
!!LO:LB:g=original
=27	=27	=27	=27	=27
4G 4GG	16dddLL	16bb-X 16gg	5	.
.	16ccc#X	8.reyy	4	.
.	16cccn	.	5	.
.	16bbnJJ	.	4	.
(4e-X 4E-X	16bb-XLL	16gg 16cc#X	3	.
.	16aa	8.rgyy	5	<
.	16aa-X	.	4	.
.	16ggJJ	.	5	.
4d 4D)	16ff#XLL	16dd 16a	3	.
.	16gg	8.rgyy	4	.
.	16gg#X	.	3	.
.	16aanJJ	.	4	.
(4An 4AAn	16bb-XLL	16ffn 16ccn	3	.
.	16bbn	8.ryy	4	.
.	16ccc	.	5	.
.	16bbJJ	.	4	.
=28	=28	=28	=28	=28
4F 4FF)	16dddLL	16aa 16ff	5	.
.	16ccc	8.ryy	4	.
.	16bb-X	.	3	.
.	16aaJJ	.	5	.
(4d-X 4D-X	16aa-XLL	16ff 16bn	4	.
.	16gg	8.reyy	5	.
.	16ff#X	.	4	.
.	16ffnJJ	.	5	.
4c 4C)	16eeLL	16cc 16g	4	.
.	16ff	8.rgyy	5	.
.	16ff#X	.	4	.
.	16ggJJ	.	5	.
(>4G\ 4GG\	16gg#XLL	16ee-X 16b-X	4	.
.	16aan	8.ryy	5	.
.	16bb-X	.	4	.
.	16aaJJ	.	3	.
!!LO:LB:g=original
=29	=29	=29	=29	=29
8E-X 8EE-X)	16cccLL	16gg 16ee-X	5	.
.	16bb-X	8.ryy	4	.
8r	16aa	.	5	.
.	16aa-XJJ	.	4	.
.	.	.	.	f
2e- 2E-	16ggLL	16ee- 16b-X	5	.
.	.	.	.	>
.	16ff#X	8.ryy	4	.
.	16ffn	.	5	.
.	16eenJJ	.	4	.
.	.	.	.	]
.	16ee-XLL	16b- 16g	3	.
.	16dd	8.rgyy	5	.
.	16dd-X	.	4	.
.	16ccJJ	.	5	.
!LO:S:s=1:note:problem:note-level slur	!	!	!	!
(<4E- (<4EE-	16b-XLL	16g 16c#X	4	.
.	16a	8.rAyy	5	.
.	16g#X	.	4	.
.	16gnJJ	.	5	.
=30	=30	=30	=30	=30
8D) 8DD)	16f#XLL	16d 16A	3	.
.	16g	8.rAyy	4	fz
8r	16g#X	.	3	p
.	16aJJ	.	4	.
!LO:S:s=1:note:problem:note-level slur	!	!	!	!
(<4AA (<4EE-X^>	16b-XLL	16gn 16c#X	5	.
.	16a	8.rAyy	4	.
.	16g#X	.	3	.
.	16gnJJ	.	4	.
4D) 4DD)	16f#LL	16d 16A	3	.
.	16g	8.rAyy	4	.
.	16g#X	.	3	.
.	16aJJ	.	4	.
!LO:S:s=1:note:problem:note-level slur	!	!	!	!
(<4AA (<4EE-	16b-LL	16gn 16c#	5	.
.	16a	8.rcyy	4	.
.	16g#X	.	3	.
.	16gnJJ	.	4	.
!!LO:LB:g=original
=31	=31	=31	=31	=31
4D) 4DD)	16f#XLL	16d 16A	3	.
.	16g	8.rAyy	4	.
.	16g#X	.	3	.
.	16aJJ	.	4	.
!LO:S:s=1:note:problem:note-level slur	!	!	!	!
(4BBn (<4FFn	16ccLL	16d#X	5	.
.	16b	8.rAyy	4	>
.	16b-X	.	3	.
.	16aJJ	.	4	]
4E) 4EE)	16g#LL	16e 16Bn	3	.
.	16a	8.rAyy	4	>
.	16a#X	.	3	.
.	16bnJJ	.	4	.
(<4BB 4FF	16ccLL	16an 16d#	5	.
.	16bn	8.rAyy	4	.
.	16b-X	.	3	.
.	16aJJ	.	4	]
=32	=32	=32	=32	=32
[<1E [1EE)	8g#X	16e 16B	3	.
.	.	8.rAyy	.	.
.	8ra	.	.	.
*	*	*	*^	*
.	.	.	.	.	>
.	16eeeLL	16bb 16gg#X	4	.	.
.	16fff	8.rcyy	.	5	.
.	16ddd	.	.	4	.
.	16eeeJJ	.	.	5	.
*	*	*	*v	*v	*
.	16cccLL	16aa 16ee	4	.
.	16ddd	8.reyy	5	.
.	16bb	.	4	.
.	16cccJJ	.	5	.
.	16aaLL	16ee 16cc	4	.
.	16bb	8.reyy	5	.
.	16ggn	.	4	.
.	16aaJJ	.	5	]
!!LO:LB:g=original
=33	=33	=33	=33	=33
1E_< 1EE_	16ffLL	16cc 16a	4	.
.	16gg	8.reyy	5	.
.	16ee	.	3	.
.	[<16ffJJ	.	1	.
.	16dddLL	16aa 16ff]	4	>
.	16eee	8.ryy	5	.
.	16ccc	.	4	.
.	16dddJJ	.	5	.
.	16bbLL	16ff 16dd	4	.
.	16ccc	8.rgyy	5	.
.	16aa	.	4	.
.	16bbJJ	.	5	.
.	16gg#XLL	16dd 16b	4	.
.	16aa	8.ryy	5	.
.	16ff	.	4	.
.	16ggnJJ	.	5	.
.	.	.	.	]
=34	=34	=34	=34	=34
1E_< 1EE_	16eeLL	16b 16g#X	4	.
.	16ff	8.reyy	5	>
.	16dd#X	.	3	.
.	[<16eeJJ	.	1	.
.	16cccLL	16aa 16ee]	4	.
.	16dddn	8.ryy	.	.
.	16bb	.	.	.
.	16cccJJ	.	.	.
.	16aaLL	16ee 16cc	.	.
.	16bb	8.rgyy	.	.
.	16ggn	.	.	.
.	16aaJJ	.	.	.
.	16ffLL	16cc 16a	.	.
.	16gg	8.rgyy	.	.
.	16ee	.	.	.
.	16ffJJ	.	.	]
!!LO:LB:g=original
=35	=35	=35	=35	=35
1E] 1EE]	16ddLL	16a 16f	.	.
.	16ee	8.reyy	.	.
.	16cc	.	.	.
.	16ddJJ	.	.	.
.	16bLL	16f 16d	.	.
.	16cc	8.rcyy	.	.
.	16a	.	.	.
.	16bJJ	.	.	.
.	16g#XLL	16d 16B	.	.
!	!LO:TX:a:B:i:t=sempre legato.	!	!	!
.	16f	8.rFyy	3	<
.	16d#X	.	2	.
.	16eJJ	.	3	.
.	16fLL	4rFyy	4	.
.	16f#X	.	3	.
.	16g	.	4	.
.	16g#XJJ	.	3	.
.	.	.	.	[
=36	=36	=36	=36	=36
8AA'<	16aLL	16e 16c	.	.
.	16a#X	8.rAyy	.	.
8r	16b	.	.	.
.	16ccJJ	.	.	.
8cn'> 8A'> 8E'>	16cc#XLL	16an 16e	.	.
.	16dd	8.rcyy	.	.
8r	16dd#X	.	.	.
.	16eeJJ	.	.	.
8AA'<	16ffLL	16ddn 16a	.	.
.	16ff#X	8.ryy	.	.
8r	16gg	.	.	.
.	16gg#XJJ	.	.	.
8d'> 8A'> 8F'>	16aaLL	16ffn 16dd	.	.
.	16aa#X	8.reyy	.	.
8r	16bb	.	.	.
.	16cccnJJ	.	.	.
!!LO:PB:g=original
=37	=37	=37	=37	=37
8AA'<	16ccc#XLL	16aa 16ee	.	.
.	16ddd	8.rgyy	.	.
8r	16ddd#X	.	.	.
.	16eeeJJ	.	.	.
8cn'> 8A'> 8E'>	16fffLL	16cccn 16aa	.	.
.	16eee	8.rddyy	.	.
8r	16ddd#	.	.	.
.	16dddnJJ	.	.	.
8e'> 8cn'> 8A'>	16ccc#XLL	16aa 16ee	.	.
.	16cccn	8.ryy	.	.
8r	16bb	.	.	.
.	16bb-XJJ	.	.	.
4r	16aanLL	16ee 16ccn	.	.
.	16gg#X	8.rgyy	.	.
.	16bbn	.	.	.
.	16aaJJ	.	.	.
=38	=38	=38	=38	=38
8EE'<	16gg#XLL	16ee 16b	.	.
.	16ggn	8.ryy	.	.
8r	16ff#X	.	.	.
.	16ffnJJ	.	.	.
8d'> 8B'> 8E'>	16eeLL	16b 16g#X	.	.
.	16dd#X	8.ryy	.	.
8r	16ff	.	.	.
.	16eeJJ	.	.	.
8AA'<	16ee-XLL	16cc 16a	.	.
.	16ddn	8.reyy	.	.
8r	16cc#X	.	.	.
.	16ccnJJ	.	.	.
8c'> 8A'> 8E'>	16bLL	16a 16en	.	.
.	16cc	8.reyy	.	.
8r	16ddn	.	.	.
.	16ccJJ	.	.	.
!!LO:LB:g=original
=39	=39	=39	=39	=39
8B 8E	16bLL	16g#X 16e	.	.
.	16cc	8.rAyy	.	.
8r	16b	.	.	.
.	16ccJJ	.	.	.
[4B^> (<4F^>	16bLL	16a 16d#X	.	.
.	16cc	8.rcyy	.	.
.	16b	.	.	.
.	16ccJJ	.	.	.
8B] 8E)	16bLL	16g# 16e	.	.
.	16ee	8.reyy	.	.
8r	16dd#X	.	.	.
.	16ddnJJ	.	.	.
4r	16cc#XLL	16g# 16dn	.	.
.	16ccn	8.reyy	.	.
.	16b	.	.	.
.	16b-XJJ	.	.	.
=40	=40	=40	=40	=40
8AA'<	16aLL	16e 16c	.	.
.	16a#X	8.rcyy	.	.
8r	16b	.	.	.
.	16ccJJ	.	.	.
8cn'> 8A'> 8E'>	16cc#XLL	16an 16e	.	.
.	16dd	8.rcyy	.	.
8r	16dd#X	.	.	.
.	16eeJJ	.	.	.
8AA'<	16ffLL	16ddn 16a	.	.
.	16ff#X	8.reyy	.	.
8r	16gg	.	.	.
.	16gg#XJJ	.	.	.
8d'> 8A'> 8F'>	16aaLL	16ffn 16dd	.	.
.	16aa#X	8.ryy	.	.
8r	16bb	.	.	.
.	16cccnJJ	.	.	.
!!LO:LB:g=original
=41	=41	=41	=41	=41
8AA'> 8AAA'>	16ccc#XLL	16aa 16ee	.	.
.	16ddd	8.rgyy	.	.
8r	16ddd#X	.	.	.
.	16eeeJJ	.	.	.
8cn'> 8A'> 8E'>	16fffLL	16cccn 16aa	.	.
.	16eee	8.ryy	.	.
8r	16eee-X	.	.	.
.	16dddnyJJ	.	.	.
8e'> 8c'> 8A'>	16ccc#XLL	16aa 16ee	.	.
.	16cccn	8.ryy	.	.
8r	16bb	.	.	.
.	16bb-XJJ	.	.	.
4r	16aaLL	16ee 16ccn	.	.
.	16gg#X	8.rgyy	.	.
.	16bbn	.	.	.
.	16aaJJ	.	.	.
=42	=42	=42	=42	=42
!	!LO:TX:b:B:i:t=cres--cen--do.:dur=3qs:ext=ud:problem:text with extention lines	!	!	!
8D'< 8DD'<	16bb-XLL	16ff 16dd	3	.
.	16bbn	8.ryy	4	.
8r	16ccc	.	5	.
.	16ccc#XJJ	.	3	.
*	*8va	*	*	*
8d'> 8B-X'> 8F'> 8D'>	16dddnLL	16bb-X 16ff	4	.
.	16dfd#X	8.reyy	3	.
8r	16eee	.	4	.
.	16fffJJ	.	5	.
8E'< 8EE'<	16eeeLL	16dddn 16gg#X	4	.
.	16fff	8.reyy	5	.
8r	16fff#X	.	4	.
.	16gggJJ	.	5	.
8d'> 8Bn'> 8E'>	16ggg#XLL	16ddd	4	.
.	16aaa	8.ryy	5	.
8r	16aaa#X	.	4	.
.	16bbbJJ	.	5	.
!!LO:LB:g=original
=43	=43	=43	=43	=43
!	!LO:TX:t=P:źle wyświetlają się wysokości:problem	!	!	!
8F'< 8FF'<	16aaaLL	16ccc	4	f
.	16ggg#X	8.reyy	3	.
8r	16gggn	.	5	.
.	16fff#XJJ	.	4	.
8f'> 8c'> 8A'>	16fffnLL	16ccc 16aa	5	.
.	16eee	8.rcyy	4	.
8r	16eee-X	.	3	.
.	16dddJJ	.	5	.
*	*X8va	*	*	*
!	!LO:TX:a:B:i:t=loco.	!	!	!
8C'< 8CC'<	16ccc#XLL	16aa 16een	4	.
.	16cccn	8.rcyy	5	.
8r	16bb	.	4	.
.	16bb-XJJ	.	3	.
8e'> 8A'> 8E'>	16aaLL	16ee 16ccn	5	.
.	16gg#X	8.reyy	4	.
8r	16ggn	.	5	.
.	16ff#XJJ	.	4	.
=44	=44	=44	=44	=44
8D'< 8DD'<	16ffnLL	16dd 16b-X	5	.
.	16ee	8.reyy	4	.
8r	16ee-X	.	3	.
.	16ddJJ	.	4	.
(4d 4B-X 4F 4D	16cc#XLL	16b-X 16f	3	.
.	.	.	.	>
.	16dd	8.reyy	4	.
.	16ff	.	5	.
.	16ddJJ	.	4	.
4c 4A 4E)	16bnLL	16a 16e	3	]
.	16ccn	8.rcyy	4	.
.	16een	.	5	.
.	16ccJJ	.	4	.
4Bn 4E	16a#XLL	16g#X 16d^<	3	.
.	16b	8.rAyy	4	.
.	16ee	.	5	.
.	16bJJ	.	4	.
!!LO:LB:g=original
=45	=45	=45	=45	=45
!	!LO:TX:a:B:i:t=sempre legato.	!	!	!
8A 8AA	16aLL	16c	2	.
.	16a#X	8.rcyy	3	.
8r	16b	.	4	.
.	16ccJJ	.	5	.
2F^> 2FF^>	16cc#XLL	16an 16d	3	.
.	16dd	8.rcyy	4	.
.	16dd#X	.	3	.
.	16eeJJ	.	4	.
.	16ffLL	16ddn 16a	5	.
!	!LO:TX:b:B:i:t=cres--cen--do.:dur=4q3s:ext=ud:problem:text with extention lines	!	!	!
.	16ff#X	8.reyy	3	.
.	16gg	.	4	.
.	16gg#XJJ	.	3	.
4E 4EE	16aaLL	16ee 16dd	4	.
.	16aa#X	8.ryy	3	.
.	16bb	.	4	.
.	16cccnJJ	.	5	.
=46	=46	=46	=46	=46
8AA 8AAA	16aaLL	16ee 16cc	4	.
.	16aa#X	8.ryy	3	.
8r	16bb	.	4	.
.	16cccJJ	.	5	.
2FF^> 2FFF^>	16ccc#XLL	16aan 16dd	.	.
.	16ddd	8.ryy	.	.
.	16ddd#X	.	.	.
.	16eeeJJ	.	.	.
*	*8va	*	*	*
.	16fffLL	16dddn 16aa	.	.
.	16fff#X	8.rgyy	.	.
.	16ggg	.	.	.
.	16ggg#XJJ	.	.	.
4EE 4EEE	16aaaLL	16eee 16ddd	.	.
.	16aaa#X	8.ryy	.	.
.	16bbb	.	.	.
.	16ccccnJJ	.	.	.
!!LO:LB:g=original
=47	=47	=47	=47	=47
[<1AA [1AAA	16aaaLL	16eee 16ccc	4	.
.	16ggg#X	8.rgyy	3	.
.	16gggn	.	5	.
.	16fff#XJJ	.	4	.
.	16fffnLL	16ddd 16aa	5	.
.	16eee	8.rgyy	4	.
.	16eee-X	.	3	.
.	16dddJJ	.	5	.
.	16ccc#XLL	16aa 16ff	4	.
.	16cccn	8.rcyy	5	.
.	16bb	.	4	.
.	16bb-XJJ	.	3	.
*	*X8va	*	*	*
!	!LO:TX:a:B:i:t=loco.	!	!	!
.	16aaLL	16ff 16dd	5	.
.	16gg#X	8.rgyy	4	.
.	16ggn	.	5	.
.	16ff#XJJ	.	4	.
=48	=48	=48	=48	=48
1AA_< 1AAA_	16ffnLL	16dd 16a	5	.
.	16ee	8.reyy	4	>
.	16ee-X	.	.	.
.	16ddJJ	.	.	.
.	16cc#XLL	16a 16f	.	.
.	16ccn	8.rcyy	.	.
.	16b	.	.	.
.	16b-XJJ	.	.	.
.	16aLL	16f 16d	.	.
.	16g#X	8.rcyy	.	.
.	16gn	.	.	.
.	16f#XJJ	.	.	.
.	16fnLL	16d 16A	5	.
.	16e	8.rDyy	4	.
.	16e-X	.	3	.
.	16dJJ	.	5	.
*	*v	*v	*	*
=49	=49	=49	=49
1A^>;< 1E^> 1AA^>] 1AAA^>]	1c#X;	4	.
==	==	==	==
*-	*-	*-	*-
!!title: @{OTL}; @{OPS} @{ONM} publisher: @{PPR}
!!!RDF**kern: > = above
!!!RDF**kern: < = below
!!!RDF**kern: N = linked
!!!RDF**dynam: > = "dimin.", fontstyle= "bold-italic"
!!!RDF**dynam: < = "cres.", fontstyle= "bold-italic"
!!!ENC: Marta Lawrence
!!!END: 2018-09-18
!!!EED: Tomasz Sierawski
!!!EST: revision finished 2018-09-21
!!!EED2: Emilia Ziętek
!!!EST2: revision finished 2019-09-19
!!!rism-genre: Etude
!!!rism-key: A minor
!!!rism-opus: op.  10, no. 2
!!!rism-title: Etude in A minor op.  10, no. 2
!!!rism-permalink: https://opac.rism.info/search?id=300605312&View=rism
!!!rism-773a-OPR: 300605310
!!!rism-parent-permalink: https://opac.rism.info/search?id=300605310&View=rism
